X: 2
T: Rodney's Glory
R: hornpipe
M: 4/4
L: 1/8
K: Ador
|:ed|cdBc AB (3cBA|BGEF G2 (3Bcd|eged cdef|g2ge dged|c2cB AB (3cBA|BGEF G3B|c2BA GA (3BAG|A2AG A2:||:(3Bcd|eaag a2ab|aged cA~A2|g2 (3efg agec|dcAF G2(3EFG|AGAB c2cd|ed (3efg a2ab|aged cdef|g2ge dged|cdBc AB (3cBA|BGEF G3B|c2BA GA (3BAG|A2AG A2:|


Tune 3786	Setting 21391

